pix_core/e/delete_col.svg

<!DOCTYPE svg PUBLIC "-//W3C//DTD SVG 1.1//EN" "http://www.w3.org/Graphics/SVG/1.1/DTD/svg11.dtd" [
	<!ENTITY ns_flows "http://ns.adobe.com/Flows/1.0/">
]><svg xmlns="http://www.w3.org/2000/svg" width="16" height="16" viewBox="-2 0.3 16 16" preserveAspectRatio="xMinYMid meet" overflow="visible" enable-background="new -2 0.3 16 16"><path d="M13 7.3v9h-1v-8h-3v8h-5v-8h-3v8h-1v-9h4v-2h5v2h4zm-7.8-5.1l-1.2 2.1h5l-1.2-2.1-1.3-2.2-1.3 2.2z" fill="#1F4D87"/></svg>

<?xml version="1.0" encoding="utf-8"?>
<!-- Generator: Adobe Illustrator 15.1.0, SVG Export Plug-In  -->
<!DOCTYPE svg PUBLIC "-//W3C//DTD SVG 1.1//EN" "http://www.w3.org/Graphics/SVG/1.1/DTD/svg11.dtd" [
	<!ENTITY ns_flows "http://ns.adobe.com/Flows/1.0/">
]>
<svg version="1.1"
	 xmlns="http://www.w3.org/2000/svg" xmlns:xlink="http://www.w3.org/1999/xlink" xmlns:a="http://ns.adobe.com/AdobeSVGViewerExtensions/3.0/"
	 x="0px" y="0px" width="16px" height="16px" viewBox="-2 0.3 16 16" style="overflow:visible;enable-background:new -2 0.3 16 16;"
	 xml:space="preserve" preserveAspectRatio="xMinYMid meet">
<defs>
</defs>
<path style="fill:#1F4D87;" d="M13,7.3v9h-1v-8H9v8H4v-8H1v8H0v-9h4v-2h5v2H13z M5.2,2.2L4,4.3h2.5H9L7.8,2.2L6.5,0L5.2,2.2z"/>
</svg>
